icons/flask-fill.svg

<svg viewBox="0 0 24 24" fill="currentColor" xmlns="http://www.w3.org/2000/svg">
    <path d="M15.9994 2V4H14.9994V7.24291C14.9994 8.40051 15.2506 9.54432 15.7357 10.5954L20.017 19.8714C20.3641 20.6236 20.0358 21.5148 19.2836 21.8619C19.0865 21.9529 18.8721 22 18.655 22H5.34375C4.51532 22 3.84375 21.3284 3.84375 20.5C3.84375 20.2829 3.89085 20.0685 3.98181 19.8714L8.26306 10.5954C8.74816 9.54432 8.99939 8.40051 8.99939 7.24291V4H7.99939V2H15.9994ZM12.9994 4H10.9994V8H12.9994V4Z"/>
</svg>

<svg xmlns="http://www.w3.org/2000/svg" viewBox="0 0 24 24">
    <g>
        <path fill="none" d="M0 0H24V24H0z"/>
        <path d="M16 2v2h-1v3.243c0 1.158.251 2.301.736 3.352l4.282 9.276c.347.753.018 1.644-.734 1.99-.197.092-.411.139-.628.139H5.344c-.828 0-1.5-.672-1.5-1.5 0-.217.047-.432.138-.629l4.282-9.276C8.749 9.545 9 8.401 9 7.243V4H8V2h8zm-3 2h-2v4h2V4z"/>
    </g>
</svg>
